**kern	**text	**kern	**text	**kern	**text	**kern	**text	**kern	**text
*staff5	*staff5	*staff4	*staff4	*staff3	*staff3	*staff2	*staff2	*staff1	*staff1
*I"Basso	*	*I"Tenore	*	*I"Alto	*	*I"Soprano II	*	*I"Soprano I	*
=1-	=1-	=1-	=1-	=1-	=1-	=1-	=1-	=1-	=1-
*clefF4	*	*clefGv2	*	*clefGv2	*	*clefG2	*	*clefG2	*
*k[]	*	*k[]	*	*k[]	*	*k[]	*	*k[]	*
*met(c|)	*	*met(c|)	*	*met(c|)	*	*met(c|)	*	*met(c|)	*
*M2/2	*	*M2/2	*	*M2/2	*	*M2/2	*	*M2/2	*
1E	Ju-	1G	Ju-	1B	Ju-	1r	.	1e	Ju-
=2	=2	=2	=2	=2	=2	=2	=2	=2	=2
2E\	-das	2G/	-das	2B\	-das	1r	.	2e/	-das
2E\	mer-	2G/	mer-	2B\	mer-	.	.	2e/	mer-
=3	=3	=3	=3	=3	=3	=3	=3	=3	=3
2D\	-ca-	2A/	-ca-	2d\	-ca-	1r	.	2f/	-ca-
2E\	-tor	2G/	-tor	2B\	-tor	.	.	2e/	-tor
=4	=4	=4	=4	=4	=4	=4	=4	=4	=4
[1C	pes-	[1c	pes-	[1e	pes-	1r	.	[1g	pes-
=5	=5	=5	=5	=5	=5	=5	=5	=5	=5
2C/]	.	2c\]	.	2e\]	.	1r	.	2g/]	.
2GG/	-si-	2B\	-si-	2d\	-si-	.	.	2g/	-si-
=6	=6	=6	=6	=6	=6	=6	=6	=6	=6
1GG	-mus	1B	-mus	1d	-mus	1r	.	1g	-mus
=7	=7	=7	=7	=7	=7	=7	=7	=7	=7
2r	.	2r	.	2r	.	1r	.	2r	.
[2G\	o-	[2B\	o-	[2d\	o-	.	.	[2g/	o-
=8	=8	=8	=8	=8	=8	=8	=8	=8	=8
2G\]	.	2B\]	.	2d\]	.	1r	.	2g/]	.
2G\	-scu-	2B\	-scu-	2d\	-scu-	.	.	2g/	-scu-
=9	=9	=9	=9	=9	=9	=9	=9	=9	=9
2G\	-lo	2B\	-lo	2d\	-lo	1r	.	2g/	-lo
[2D\	pe-	[2A/	pe-	[2d\	pe-	.	.	[2f/	pe-
=10	=10	=10	=10	=10	=10	=10	=10	=10	=10
4D\]	.	4A/]	.	4d\]	.	1r	.	4f/]	.
4D\	-ti-	4A/	-ti-	4d\	-ti-	.	.	4f/	-ti-
2E\	-it	2G/	-it	2B\	-it	.	.	2e/	-it
=11	=11	=11	=11	=11	=11	=11	=11	=11	=11
!!linebreak:original
[1F	Do-	[1c	Do-	2.A/	Do-	1r	.	[1a	Do-
.	.	.	.	4B\	.	.	.	.	.
=12	=12	=12	=12	=12	=12	=12	=12	=12	=12
2F\]	.	2c\]	.	2c\	.	1r	.	2a/]	.
2F\	-mi-	2A/	-mi-	2d\	-mi-	.	.	2a/	-mi-
=13	=13	=13	=13	=13	=13	=13	=13	=13	=13
1E	-num:	1B	-num:	1e	-num:	1r	.	1g#	-num:
=14	=14	=14	=14	=14	=14	=14	=14	=14	=14
2r	.	2r	.	2r	.	1r	.	2r	.
[2E\	il-	[2B\	il-	[2e\	il-	.	.	[2g#/	il-
=15	=15	=15	=15	=15	=15	=15	=15	=15	=15
2E\]	.	2B\]	.	2e\]	.	1r	.	2g#/]	.
2E\	-le	2B\	-le	2e\	-le	.	.	2g#/	-le
=16	=16	=16	=16	=16	=16	=16	=16	=16	=16
2AA/	ut	2c\	ut	2e\	ut	1r	.	2a/	ut
[2D\	a-	[2A/	a-	[2d\	a-	.	.	[2f/	a-
=17	=17	=17	=17	=17	=17	=17	=17	=17	=17
2D\]	.	2A/]	.	2d\]	.	1r	.	2f/]	.
2C/	-gnus	2c\	-gnus	2G/	-gnus	.	.	2e/	-gnus
=18	=18	=18	=18	=18	=18	=18	=18	=18	=18
2.F\	in-	2c\	in-	2.A/	in-	1r	.	2c/	in-
.	.	2A/	-no-	.	.	.	.	2d/	-no-
4F\	-no-	.	.	4A/	-no-	.	.	.	.
=19	=19	=19	=19	=19	=19	=19	=19	=19	=19
2E\	-cens	2G/	-cens	2B\	-cens	1r	.	2e/	-cens
[2E\	non	2G/	non	2B\	non	.	.	2e/	non
=20	=20	=20	=20	=20	=20	=20	=20	=20	=20
2E\]	.	2G/	ne-	2B\	ne-	1r	.	2e/	ne-
2D\	ne-	[2A/	-ga-	[2d\	-ga-	.	.	[2f/	-ga-
=21	=21	=21	=21	=21	=21	=21	=21	=21	=21
2D\	-ga-	2A/]	.	2d\]	.	1r	.	2f/]	.
2AA/	-vit	2A/	-vit	2c\	-vit	.	.	2e/	-vit
=22	=22	=22	=22	=22	=22	=22	=22	=22	=22
!!pagebreak:original
1C	Ju-	1G	Ju-	1c	Ju-	1r	.	1e	Ju-
=23	=23	=23	=23	=23	=23	=23	=23	=23	=23
1C	-dae	1E	-dae	2c\	-dae	1r	.	1e	-dae
.	.	.	.	[2A/	o-	.	.	.	.
=24	=24	=24	=24	=24	=24	=24	=24	=24	=24
2.BB/	o-	2.B\	o-	2A/]	.	1r	.	2.e/	o-
.	.	.	.	2G#/	-scu-	.	.	.	.
4BB/	-scu-	4B\	-scu-	.	.	.	.	4d/	-scu-
=25	=25	=25	=25	=25	=25	=25	=25	=25	=25
[1AA	-lum:	[1E	-lum:	[1A	-lum:	1r	.	[1c#	-lum:
=26	=26	=26	=26	=26	=26	=26	=26	=26	=26
1AA]	.	1E]	.	1A]	.	1r	.	1c#]	.
=27||	=27||	=27||	=27||	=27||	=27||	=27||	=27||	=27||	=27||
1A	De-	1c	De-	1e	De-	1r	.	1a	De-
=28	=28	=28	=28	=28	=28	=28	=28	=28	=28
2A\	-na-	2c\	-na-	2e\	-na-	1r	.	2a/	-na-
2A\	-ri-	2c\	-ri-	2e\	-ri-	.	.	2a/	-ri-
=29	=29	=29	=29	=29	=29	=29	=29	=29	=29
2A\	-o-	2c\	-o-	2e\	-o-	1r	.	2a/	-o-
2F\	-rum	2c\	-rum	2f\	-rum	.	.	2a/	-rum
=30	=30	=30	=30	=30	=30	=30	=30	=30	=30
[1A	nu-	[1c	nu-	[1e	nu-	1r	.	1a	nu-
=31	=31	=31	=31	=31	=31	=31	=31	=31	=31
2A\]	.	2c\]	.	2e\]	.	1r	.	1e	-me-
2A\	-me-	2A/	-me-	2c\	-me-	.	.	.	.
=32	=32	=32	=32	=32	=32	=32	=32	=32	=32
2G\	-ro	2B\	-ro	2d\	-ro	1r	.	2g/	-ro
[2D\	Chri-	[2A/	Chri-	[2d\	Chri-	.	.	[2f/	Chri-
=33	=33	=33	=33	=33	=33	=33	=33	=33	=33
2D\]	.	2A/]	.	2d\]	.	1r	.	2f/]	.
[2D\	-stum	[2A/	-stum	[2d\	-stum	.	.	[2f/	-stum
=34	=34	=34	=34	=34	=34	=34	=34	=34	=34
!!linebreak:original
2D\]	.	2A/]	.	2d\]	.	1r	.	2f/]	.
2E\	Ju-	[2c\	Ju-	[2g\	Ju-	.	.	2e/	Ju-
=35	=35	=35	=35	=35	=35	=35	=35	=35	=35
1F	-dae-	2c\]	.	2g\]	.	1r	.	1a	-dae-
.	.	2c\	-dae-	[2f\	-dae-	.	.	.	.
=36	=36	=36	=36	=36	=36	=36	=36	=36	=36
1C	-is	2.c\	-is	2f\]	.	1r	.	1g	-is
.	.	.	.	2e\	-is	.	.	.	.
.	.	4B\	.	.	.	.	.	.	.
=37	=37	=37	=37	=37	=37	=37	=37	=37	=37
1D	tra-	[1A	tra-	1d	tra-	1r	.	1f	tra-
=38	=38	=38	=38	=38	=38	=38	=38	=38	=38
2.AA/	.	2A/]	.	2.c\	.	1r	.	1e	-di-
.	.	2A/	-di-	.	.	.	.	.	.
4AA/	-di-	.	.	4c\	-di-	.	.	.	.
=39	=39	=39	=39	=39	=39	=39	=39	=39	=39
[1E	-dit.	[1G#	-dit.	[1B	-dit.	1r	.	[1e	-dit.
=40	=40	=40	=40	=40	=40	=40	=40	=40	=40
1E]	.	1G#]	.	1B]	.	1r	.	1e]	.
=41||	=41||	=41||	=41||	=41||	=41||	=41||	=41||	=41||	=41||
1r	.	1r	.	1e	Me-	1g	Me-	1b	Me-
=42	=42	=42	=42	=42	=42	=42	=42	=42	=42
1r	.	1r	.	2e\	-li-	2g/	-li-	2b\	-li-
.	.	.	.	2e\	-us	2g/	-us	2b\	-us
=43	=43	=43	=43	=43	=43	=43	=43	=43	=43
1r	.	1r	.	2A/	il-	2a/	il-	2cc\	il-
.	.	.	.	2G#/	-li	2b\	-li	2b\	-li
=44	=44	=44	=44	=44	=44	=44	=44	=44	=44
1r	.	1r	.	1A	e-	1cc	e-	1a	e-
=45	=45	=45	=45	=45	=45	=45	=45	=45	=45
1r	.	1r	.	[1e	-rat,	[1b	-rat,	[1g#	-rat,
=46	=46	=46	=46	=46	=46	=46	=46	=46	=46
!!linebreak:original
1r	.	1r	.	2e\]	.	2b\]	.	2g#/]	.
.	.	.	.	2e\	si	2g#/	si	2b\	si
=47	=47	=47	=47	=47	=47	=47	=47	=47	=47
1r	.	1r	.	1e	na-	1g#i	na-	1b	na-
=48	=48	=48	=48	=48	=48	=48	=48	=48	=48
1r	.	1r	.	2A/	-tus	2a/	-tus	2cc\	-tus
.	.	.	.	[2d\	non	[2f#/	non	[2a/	non
=49	=49	=49	=49	=49	=49	=49	=49	=49	=49
1r	.	1r	.	2d\]	.	4f#/]	.	2a/]	.
.	.	.	.	.	.	8e/L	.	.	.
.	.	.	.	.	.	8f#i/J	.	.	.
.	.	.	.	2G/	fu-	2g/	.	2b\	fu-
=50	=50	=50	=50	=50	=50	=50	=50	=50	=50
1r	.	1r	.	4G/	-is-	2e/	.	1cc	-is-
.	.	.	.	4A/	.	.	.	.	.
.	.	.	.	4B\	.	2a/	fu-	.	.
.	.	.	.	4c\	.	.	.	.	.
=51	=51	=51	=51	=51	=51	=51	=51	=51	=51
1r	.	1r	.	[1e	.	2a/	-is-	[1b	.
.	.	.	.	.	.	4g#/	.	.	.
.	.	.	.	.	.	4f#i/	.	.	.
=52	=52	=52	=52	=52	=52	=52	=52	=52	=52
1r	.	1r	.	1e]	.	1g#	.	1b]	.
=53	=53	=53	=53	=53	=53	=53	=53	=53	=53
1r	.	1r	.	[1A	-set.	[1a	-set.	[1a	-set.
=54	=54	=54	=54	=54	=54	=54	=54	=54	=54
1r	.	1r	.	1A]	.	1a]	.	1a]	.
!!pagebreak:original
=55||	=55||	=55||	=55||	=55||	=55||	=55||	=55||	=55||	=55||
!!pagebreak:original
1A	De-	1c	De-	1e	De-	1r	.	1a	De-
=56	=56	=56	=56	=56	=56	=56	=56	=56	=56
2A\	-na-	2c\	-na-	2e\	-na-	1r	.	2a/	-na-
2A\	-ri-	2c\	-ri-	2e\	-ri-	.	.	2a/	-ri-
=57	=57	=57	=57	=57	=57	=57	=57	=57	=57
2A\	-o-	2c\	-o-	2e\	-o-	1r	.	2a/	-o-
2F\	-rum	2c\	-rum	2f\	-rum	.	.	2a/	-rum
=58	=58	=58	=58	=58	=58	=58	=58	=58	=58
[1A	nu-	[1c	nu-	[1e	nu-	1r	.	1a	nu-
=59	=59	=59	=59	=59	=59	=59	=59	=59	=59
2A\]	.	2c\]	.	2e\]	.	1r	.	1e	-me-
2A\	-me-	2A/	-me-	2c\	-me-	.	.	.	.
=60	=60	=60	=60	=60	=60	=60	=60	=60	=60
2G\	-ro	2B\	-ro	2d\	-ro	1r	.	2g/	-ro
[2D\	Chri-	[2A/	Chri-	[2d\	Chri-	.	.	[2f/	Chri-
=61	=61	=61	=61	=61	=61	=61	=61	=61	=61
2D\]	.	2A/]	.	2d\]	.	1r	.	2f/]	.
[2D\	-stum	[2A/	-stum	[2d\	-stum	.	.	[2f/	-stum
=62	=62	=62	=62	=62	=62	=62	=62	=62	=62
2D\]	.	2A/]	.	2d\]	.	1r	.	2f/]	.
2E\	Ju-	[2c\	Ju-	[2g\	Ju-	.	.	2e/	Ju-
=63	=63	=63	=63	=63	=63	=63	=63	=63	=63
!!linebreak:original
1F	-dae-	2c\]	.	2g\]	.	1r	.	1a	-dae-
.	.	2c\	-dae-	[2f\	-dae-	.	.	.	.
=64	=64	=64	=64	=64	=64	=64	=64	=64	=64
1C	-is	2.c\	-is	2f\]	.	1r	.	1g	-is
.	.	.	.	2e\	-is	.	.	.	.
.	.	4B\	.	.	.	.	.	.	.
=65	=65	=65	=65	=65	=65	=65	=65	=65	=65
1D	tra-	[1A	tra-	1d	tra-	1r	.	1f	tra-
=66	=66	=66	=66	=66	=66	=66	=66	=66	=66
2.AA/	.	2A/]	.	2.c\	.	1r	.	1e	-di-
.	.	2A/	-di-	.	.	.	.	.	.
4AA/	-di-	.	.	4c\	-di-	.	.	.	.
=67	=67	=67	=67	=67	=67	=67	=67	=67	=67
[1E	-dit.	[1G#	-dit.	[1B	-dit.	1r	.	[1e	-dit.
=68	=68	=68	=68	=68	=68	=68	=68	=68	=68
1E]	.	1G#]	.	1B]	.	1r	.	1e]	.
==	==	==	==	==	==	==	==	==	==
*-	*-	*-	*-	*-	*-	*-	*-	*-	*-
!!!OTL: Judas mercator pessimus 
!!!COM: Ingegneri, Marc' Antonio
!!!CDT: ca. 1535/36-1592-07-01
!!!TXO: Latin
!!!ODT: 
!!!ARL: Klasztor OO. Paulinów na Jasnej Górze
!!!voices:	5
!!title: @{OTL}, @{GTL}, ed. @{ENC}
!!!pag:
!!!GTL: Responsoria in Hebdomada majore
!!!EFL: 
!!!YEM: Creative Commons CC/BY/NC/SA 4.0
!!!ENC: Marcin Konik
!!!END: 2015-0m-dd
!!!EED: Marcin Konik
!!!EEV: 
!!!ONB: Encoded in vim by Marcin Konik
!!!CharacterEncoding: utf-8
!!!RDF**kern: l=long note in original notation
!!!RDF**kern: i=editorial accidental
!!muse2ps: z14jc180F
